!! 00000] TT[WS
!!!OTL: Fanshen xiaochang
!!!ARE: Asia, China, Shanxi Linxian
!! Ethnic Group: Han
!! WI, 317 (1)
!!!SCT: J0384
!!!YEM: Copyright 1995, estate of Helmut Schaffrath.
**kern
*ICvox
*Ivox
*M2/4
*k[f#]
*G:
{8.dd
16ee
4gg
=1
8ff#
8ee
8dd
8b
=2
8ee
8gg
8dd
8b
=3
4.a
8b}
=4
{8.dd
16ee
4gg
=5
8ff#
8ee
8dd
8b
=6
8ee
8gg
8dd
8b
=7
2a}
=8
{8.a
16b
4dd
=9
8.b
16gg
8ee
8dd
=10
8b
16a
16b
8dd
8ee
=11
4g
8f#
8e}
=12
{8.d
16d
8dd
8dd
=13
8b
8a
4g
=14
8a
8b
8g
8e
=15
2d}
==
!!!AGN: Xiaodiao. Xinminge, Xuanchuan
!! Neue Text. Politische Liede
!!!ONB: ESAC (Essen Associative Code) Database: CHINA
!!!AMT: simple duple
!!!AIN: vox
!!!EED: Helmut Schaffrath
!!!EEV: 1.0
*-
